public/icons/markets/dollar-icon.svg

<svg width="24" height="24" viewBox="0 0 24 24" fill="none" xmlns="http://www.w3.org/2000/svg">
<path d="M12 8C10.343 8 9 8.895 9 10C9 11.105 10.343 12 12 12C13.657 12 15 12.895 15 14C15 15.105 13.657 16 12 16V8ZM12 8C13.11 8 14.08 8.402 14.599 9L12 8ZM12 8V7V8ZM12 8V16V8ZM12 16V17V16ZM12 16C10.89 16 9.92 15.598 9.401 15L12 16ZM21 12C21 13.1819 20.7672 14.3522 20.3149 15.4442C19.8626 16.5361 19.1997 17.5282 18.364 18.364C17.5282 19.1997 16.5361 19.8626 15.4442 20.3149C14.3522 20.7672 13.1819 21 12 21C10.8181 21 9.64778 20.7672 8.55585 20.3149C7.46392 19.8626 6.47177 19.1997 5.63604 18.364C4.80031 17.5282 4.13738 16.5361 3.68508 15.4442C3.23279 14.3522 3 13.1819 3 12C3 9.61305 3.94821 7.32387 5.63604 5.63604C7.32387 3.94821 9.61305 3 12 3C14.3869 3 16.6761 3.94821 18.364 5.63604C20.0518 7.32387 21 9.61305 21 12Z" stroke="#A5A8B6" stroke-width="2" stroke-linecap="round" stroke-linejoin="round"/>
</svg>

<svg width="24" height="24" viewBox="0 0 24 24" fill="none" xmlns="http://www.w3.org/2000/svg"><path d="M12 8c-1.657 0-3 .895-3 2s1.343 2 3 2 3 .895 3 2-1.343 2-3 2V8Zm0 0c1.11 0 2.08.402 2.599 1L12 8Zm0 0V7v1Zm0 0v8-8Zm0 8v1-1Zm0 0c-1.11 0-2.08-.402-2.599-1L12 16Zm9-4a9 9 0 1 1-18 0 9 9 0 0 1 18 0Z" stroke="#A5A8B6" stroke-width="2" stroke-linecap="round" stroke-linejoin="round"/></svg>
